X: 1
T: Bella Ragazza   [D]
O: Italia
M: 3/4
L: 1/4
K: D
[FD] "A"|\
"D"[A2F2][FD] | [AF][GE][FD] | "A7"[E2C2][FD] | [G2E2][^G^E] |\
"D"[AF][F2D2]- | [F2D2] [fd] |1 [af][f2-d2-] | [f2d2] :|2 [af][f2d2] ||
|: DDD "B"|\
"G"[B2G2][BG] | [BG][cA][dB] | "D"[A2F2][AF] |\
[1 [AF][BG][cA] | "Em"[G2E2][GE] | "A7"[GE][AF][BG] | "D"[F3D3] :|\
[2 [AF][BG][AF] | "A7"[c2E2][cE] | [cE][BG][cG] | "D"[d3F3] | z2 |]
